packages/katcn/src/icons/svg/shoppingBag-solid.svg

<svg width="24" height="24" viewBox="0 0 24 24" fill="none" xmlns="http://www.w3.org/2000/svg">
<path d="M20.6 5.9C20.4 3.7 18.6 2 16.3 2H7.60003C5.40003 2 3.60003 3.7 3.40003 5.9L2.00003 17.3C1.90003 18.5 2.30003 19.7 3.10003 20.6C3.90003 21.5 5.10003 22 6.30003 22H17.8C19 22 20.1 21.5 21 20.6C21.8 19.7 22.2 18.5 22.1 17.3L20.6 5.9Z" fill="black"/>
<path d="M12 11.4C9.20002 11.4 6.90002 9.1 6.90002 6.3C6.90002 5.7 7.30002 5.3 7.90002 5.3C8.50002 5.3 8.90002 5.7 8.90002 6.3C8.90002 8 10.3 9.4 12 9.4C13.7 9.4 15.1 8 15.1 6.3C15.1 5.7 15.5 5.3 16.1 5.3C16.7 5.3 17.1 5.7 17.1 6.3C17.1 9.1 14.8 11.4 12 11.4Z" fill="white"/>
</svg>

<svg xmlns="http://www.w3.org/2000/svg" fill="none" viewBox="0 0 24 24"><path fill="#000" d="M20.6 5.9c-.2-2.2-2-3.9-4.3-3.9H7.6c-2.2 0-4 1.7-4.2 3.9L2 17.3c-.1 1.2.3 2.4 1.1 3.3s2 1.4 3.2 1.4h11.5c1.2 0 2.3-.5 3.2-1.4.8-.9 1.2-2.1 1.1-3.3z"/><path fill="#fff" d="M12 11.4c-2.8 0-5.1-2.3-5.1-5.1 0-.6.4-1 1-1s1 .4 1 1c0 1.7 1.4 3.1 3.1 3.1s3.1-1.4 3.1-3.1c0-.6.4-1 1-1s1 .4 1 1c0 2.8-2.3 5.1-5.1 5.1"/></svg>
